X: 1
T: Pullet, The
M: 4/4
L: 1/8
R: reel
K: Bmin
fe|: d2B2 B2dB | AFAB ABde | f2B2 B2dB | ABde fefa |
b2B2 B2dB | A2AB ABde | f2B2 B2dB | ABde f2fe :|
|:defg abaf | defg a2af | defg abaf | edef g2fe | 
defg abaf | defg a2gf | gfga bagf | edef g2fe :|
